site/assets/images/header-native.svg

<?xml version="1.0" encoding="UTF-8" standalone="no"?>
<svg width="39px" height="76px" viewBox="0 0 39 76" version="1.1" xmlns="http://www.w3.org/2000/svg" xmlns:xlink="http://www.w3.org/1999/xlink" xmlns:sketch="http://www.bohemiancoding.com/sketch/ns">
    <!-- Generator: Sketch 3.3.3 (12072) - http://www.bohemiancoding.com/sketch -->
    <title>Untitled</title>
    <desc>Created with Sketch.</desc>
    <defs></defs>
    <g id="Page-1" stroke="none" stroke-width="1" fill="none" fill-rule="evenodd" sketch:type="MSPage">
        <path d="M23.7161821,20.5235763 C25.3444068,20.3058865 27.4445542,18.3881269 29.5636199,17.5566873 C31.8955398,16.641732 31.3272925,16.7339317 33.1013469,14.7280572 C34.5616326,13.0768222 38.0931271,12.748 38.0304898,11 L38.0300722,64.0538142 C38.0931271,65.8026448 37.4847096,67.5930055 36.0244238,69.2442404 C32.638248,73.0728962 27.1361821,74.5825137 23.7161821,75.0401749 C22.5143799,75.2004809 19.5448744,75.3157069 17.8891602,75.302002 C17.8891602,75.302002 14.9998556,56.9547039 15,47.7794875 C15.000134,39.2698222 17.8891602,22.6484375 17.8891602,22.6484375 C19.5444569,22.6617271 22.5143799,20.6842976 23.7161821,20.5235763 Z" id="Fill-1" fill="#5E789F" sketch:type="MSShapeGroup"></path>
        <path d="M8.21008791,73.3150164 C2.48461538,71.0416612 0.0496923077,66.982929 0,64.0546448 L0,11 C0.0496923077,13.9282842 2.48461538,15.0639395 8.21008791,17.3372947 C11.9244835,18.8116116 15.5971209,22.2060546 18.6521538,22.2301421 L18.6513187,75.2847869 C15.5962857,75.2606995 11.9240659,74.7893333 8.21008791,73.3150164 Z" id="Fill-2" fill="#7A90B2" sketch:type="MSShapeGroup"></path>
        <path d="M8.21008791,73.3150164 C2.48461538,71.0416612 0.0496923077,66.982929 0,64.0546448 L0,11 C0.0496923077,13.9282842 2.48461538,17.9870164 8.21008791,20.2603716 L8.21008791,73.3150164" id="Fill-3" fill="#A8B8D0" sketch:type="MSShapeGroup"></path>
        <path d="M21.1293511,0.0708334387 C24.9255468,0.295926335 31.0332662,1.89234164 34.6263679,4.96473508 C38.2194696,8.03712852 39.4376073,12.6120793 35.9850108,16.4411504 C32.5324143,20.2698061 26.922424,21.7794236 23.4353399,22.2366695 C19.9482557,22.6939154 14.2109592,22.805216 8.37232854,20.5322761 C2.53454947,18.2589209 0.0518647753,14.2001886 0.00119774077,11.2719045 C-0.0626682691,7.56244 2.42895766,4.65990448 7.14226919,2.40399191 C11.8555807,0.148494641 16.9180264,-0.17876219 21.1293511,0.0708334387 Z" id="Fill-4" fill="#D2DBEA" sketch:type="MSShapeGroup"></path>
    </g>
</svg>

<svg width="39" height="76" xmlns="http://www.w3.org/2000/svg"><g fill="none" fill-rule="evenodd"><path d="M23.716 20.524c1.628-.218 3.73-2.136 5.848-2.967 2.332-.915 1.763-.823 3.537-2.83 1.462-1.65 4.993-1.98 4.93-3.727v53.054c.063 1.75-.545 3.54-2.006 5.19-3.386 3.83-8.888 5.34-12.308 5.796-1.202.16-4.17.276-5.827.262 0 0-2.89-18.347-2.89-27.523 0-8.51 2.89-25.132 2.89-25.132 1.654.014 4.624-1.964 5.826-2.124z" fill="#5E789F"/><path d="M8.21 73.315C2.485 71.042.05 66.983 0 64.055V11c.05 2.928 2.485 4.064 8.21 6.337 3.714 1.475 7.387 4.87 10.442 4.893v53.055c-3.056-.024-6.728-.496-10.442-1.97z" fill="#7A90B2"/><path d="M8.21 73.315C2.485 71.042.05 66.983 0 64.055V11c.05 2.928 2.485 6.987 8.21 9.26v53.055" fill="#A8B8D0"/><path d="M21.13.07c3.796.226 9.903 1.822 13.496 4.895 3.593 3.072 4.812 7.647 1.36 11.476-3.454 3.83-9.064 5.34-12.55 5.797-3.488.457-9.225.568-15.064-1.705C2.535 18.26.052 14.2.002 11.272c-.065-3.71 2.427-6.612 7.14-8.868C11.856.148 16.918-.18 21.13.07z" fill="#D2DBEA"/></g></svg>
